X:2558
T:HETILT- He tilt & she tilt
O:england
S:from Oswald's CPC, bk. 9
Q:1/4=60
L:1/4
M:C
K:F
xA/F/af/d/|cA/F/ E/G/G|cA/F/af/d/|cA/F/ D/F/F::\
c'a/f/ d'b/g/|ag/f/ e/g/g|ba/f/d'b/g/|a/f/a/f/ c/f/f::\
(A/4B/4c/) A/F/ f/a/~g|f/d/c/A/ f/A/~G|\
(A/4B/4c/) A/F/ f/a/g/f/|d(c/4A/4G/4F/4) D/F/F::\
a/4b/4c'/ a/f/ b/d'/c'|b/a/g/f/ (e/4f/4g/)c|\
b/4c'/4d'/ a/f/ b/d'/c'/b/|~a g/f/ c/f/ f:|]


